meta.svg

<svg viewBox="0 0 24 24" xmlns="http://www.w3.org/2000/svg"><defs><linearGradient gradientTransform="matrix(-6.64148 -8.70264 8.70264 -6.64148 13.8038 12.5254)" gradientUnits="userSpaceOnUse" id="LinearGradient" x1="0" x2="1" y1="0" y2="0"><stop offset="0" stop-color="#0869e1"/><stop offset="0.13" stop-color="#0869e1"/><stop offset="0.87" stop-color="#0064e0"/><stop offset="1" stop-color="#0064e0"/></linearGradient></defs><path d="M12.3258 7.39073C10.412 4.95414 8.81168 4.02564 6.89634 4.02564C2.99172 4.02564 0 9.10716 0 14.4858C0 17.8514 1.62824 19.9744 4.35558 19.9744C6.31868 19.9744 7.73049 19.0489 10.2402 14.6618C10.2402 14.6618 11.2864 12.8142 12.0062 11.5416C12.2582 11.9489 12.5234 12.3869 12.803 12.8579L13.9798 14.8378C16.2724 18.6742 17.5498 19.9744 19.8643 19.9744C22.5214 19.9744 24 17.8226 24 14.3868C24 8.75517 20.9409 4.02564 17.2246 4.02564C15.2567 4.02564 13.7184 5.50793 12.3258 7.39073ZM16.0061 13.0724L14.5989 10.7256C14.218 10.1061 13.8531 9.53713 13.5012 9.01531C14.7693 7.0578 15.8155 6.08251 17.0596 6.08251C19.6444 6.08251 21.7123 9.88816 21.7123 14.5628C21.7123 16.3447 21.1286 17.3785 19.9194 17.3785C18.7604 17.3785 18.2068 16.6131 16.0061 13.0724ZM2.59583 14.5299C2.59583 10.6251 4.54255 6.63245 6.86342 6.63245C8.12022 6.63245 9.17041 7.35818 10.7792 9.66133C9.25167 12.0043 8.32625 13.4739 8.32625 13.4739C6.29153 16.6636 5.58755 17.3785 4.45456 17.3785C3.28864 17.3785 2.59583 16.3549 2.59583 14.5299Z" fill="#0265e0"/><path d="M6.86341 6.63244C8.57927 6.63244 9.9102 7.98533 12.803 12.8579L12.9793 13.1547L14.5989 10.7256C11.5483 5.76383 9.51701 4.02564 6.89653 4.02564L6.86341 6.63244Z" fill="url(#LinearGradient)"/></svg>

<svg viewBox="0 0 24 24" xmlns="http://www.w3.org/2000/svg"><defs><linearGradient gradientTransform="scale(-10.94738) rotate(52.651 .526 -1.846)" gradientUnits="userSpaceOnUse" id="a" x1="0" x2="1" y1="0" y2="0"><stop offset="0" stop-color="#0869e1"/><stop offset=".13" stop-color="#0869e1"/><stop offset=".87" stop-color="#0064e0"/><stop offset="1" stop-color="#0064e0"/></linearGradient></defs><path d="M12.326 7.39c-1.914-2.436-3.514-3.364-5.43-3.364C2.992 4.026 0 9.107 0 14.486c0 3.365 1.628 5.488 4.356 5.488 1.963 0 3.374-.925 5.884-5.312l1.766-3.12c.252.407.517.845.797 1.316l1.177 1.98c2.292 3.836 3.57 5.136 5.884 5.136 2.657 0 4.136-2.151 4.136-5.587 0-5.632-3.06-10.361-6.775-10.361-1.968 0-3.507 1.482-4.9 3.365Zm3.68 5.682L14.6 10.726c-.381-.62-.746-1.189-1.098-1.71 1.268-1.958 2.315-2.933 3.559-2.933 2.584 0 4.652 3.805 4.652 8.48 0 1.782-.583 2.815-1.793 2.815-1.159 0-1.712-.765-3.913-4.306ZM2.596 14.53c0-3.905 1.947-7.898 4.267-7.898 1.257 0 2.307.726 3.916 3.03-1.527 2.342-2.453 3.812-2.453 3.812-2.034 3.19-2.738 3.904-3.871 3.904-1.166 0-1.86-1.023-1.86-2.848Z" fill="#0265e0"/><path d="M6.863 6.632c1.716 0 3.047 1.353 5.94 6.226l.176.297 1.62-2.43c-3.05-4.961-5.082-6.7-7.702-6.7l-.034 2.607Z" fill="url(#a)"/></svg>
